file/olympics-1972-sapporo.svg

<svg clip-rule="evenodd" fill-rule="evenodd" viewBox="0 0 560 400" xmlns="http://www.w3.org/2000/svg" xmlns:xlink="http://www.w3.org/1999/xlink"><clipPath id="a"><path clip-rule="evenodd" d="m71.861 41.894 58.256-5.542-10.372 38.932-35.806-2.842z"/></clipPath><clipPath id="b"><path clip-rule="evenodd" d="m71.861 41.894 58.256-5.542-10.372 38.932-35.806-2.842z"/></clipPath><clipPath id="c"><path clip-rule="evenodd" d="m71.861 41.894 58.256-5.542-10.372 38.932-35.806-2.842z"/></clipPath><clipPath id="d"><path clip-rule="evenodd" d="m71.861 41.894 58.256-5.542-10.372 38.932-35.806-2.842z"/></clipPath><clipPath id="e"><path clip-rule="evenodd" d="m71.861 41.894 58.256-5.542-10.372 38.932-35.806-2.842z"/></clipPath><clipPath id="f"><path clip-rule="evenodd" d="m130.057 47.243-46.085 4.873-3.844-12.116 51.453-27.067z"/></clipPath><clipPath id="g"><path clip-rule="evenodd" d="m71.861 41.894 58.256-5.542-10.372 38.932-35.806-2.842z"/></clipPath><clipPath id="h"><path clip-rule="evenodd" d="m251.653 117.757 24.109-51.584 9.966 24.513 1.616 24.244z"/></clipPath><g transform="matrix(.547825 0 0 .547825 229.271 -227.093)"><path d="m505.81-183.87h547.61v182.54h-547.61z" fill="#a9a8ac" transform="matrix(0 1 -1 0 0 0)"/><path d="m3.067 872.63h179.06v179.06h-179.06z" fill="#fff"/><path d="m3.067 507.55h179.06v179.06h-179.06z" fill="#fff"/><circle cx="92.597" cy="597.08" fill="#f63838" r="88.193"/></g><circle cx="247.688328675" cy="267.35741025" fill="none" r="13.60030345" stroke="#2341c2" stroke-width="3.4512975"/><circle cx="279.997951525" cy="267.35741025" fill="none" r="13.60030345" stroke="#000" stroke-width="3.4512975"/><g clip-path="url(#a)" transform="matrix(.0714747 -.266742 .266742 .0714747 245.457 291.67)"><path d="m93.4 24.45c13.095 17.46 13.095 41.64 0 59.1" fill="none" stroke="#fff" stroke-width="15.91"/></g><circle cx="312.3103135" cy="267.35741025" fill="none" r="13.60030345" stroke="#f63838" stroke-width="3.4512975"/><g clip-path="url(#b)" transform="matrix(-.276148 0 0 -.276148 278.757 295.883)"><path d="m93.4 24.45c13.095 17.46 13.095 41.64 0 59.1" fill="none" stroke="#fff" stroke-width="15.91"/></g><circle cx="263.8431401" cy="281.16260025" fill="none" r="13.60030345" stroke="#fcee01" stroke-width="3.4512975"/><g clip-path="url(#c)" transform="matrix(-.276148 0 0 -.276148 311.067 296.376)"><path d="m93.4 24.45c13.095 17.46 13.095 41.64 0 59.1" fill="none" stroke="#fff" stroke-width="15.91"/></g><g clip-path="url(#d)" transform="matrix(.0714747 -.266742 .266742 .0714747 277.767 291.67)"><path d="m93.4 24.45c13.095 17.46 13.095 41.64 0 59.1" fill="none" stroke="#fff" stroke-width="15.91"/></g><circle cx="296.15495425" cy="281.16260025" fill="none" r="13.60030345" stroke="#308532" stroke-width="3.4512975"/><g clip-path="url(#e)" transform="matrix(.276148 0 0 .276148 232.777 252.446)"><path d="m93.4 24.45c13.095 17.46 13.095 41.64 0 59.1" fill="none" stroke="#fff" stroke-width="15.91"/></g><path d="m53.48 887.67c6.601 8.801 6.601 20.99 0 29.791" fill="none" stroke="#2341c2" stroke-width="6.3" transform="matrix(.547825 0 0 .547825 229.271 -227.093)"/><g clip-path="url(#f)" transform="matrix(-.138074 .239153 -.239153 -.138074 300.144 261.923)"><path d="m93.4 24.45c13.095 17.46 13.095 41.64 0 59.1" fill="none" stroke="#fff" stroke-width="15.91"/></g><g clip-path="url(#g)" transform="matrix(.276148 0 0 .276148 265.087 252.446)"><path d="m93.4 24.45c13.095 17.46 13.095 41.64 0 59.1" fill="none" stroke="#fff" stroke-width="15.91"/></g><path d="m112.46 887.67c6.601 8.801 6.601 20.99 0 29.791m-19.861 9.931c-5.371 0-10.599-1.743-14.896-4.966" fill="none" stroke="#000" stroke-width="6.3" transform="matrix(.547825 0 0 .547825 229.271 -227.093)"/><g clip-path="url(#h)" transform="matrix(.276148 0 0 .276148 232.777 252.446)"><path d="m288 103.25c-10.654 0-21.026-3.457-29.55-9.85" fill="none" stroke="#fff" stroke-width="15.91"/></g><g transform="matrix(.547825 0 0 .547825 229.271 -227.093)"><path d="m151.58 927.39c-5.371 0-10.599-1.743-14.896-4.965" fill="none" stroke="#f63838" stroke-width="6.3"/><path d="m178.42 1011.9c0 2.53-.34 5.17-1.019 7.93-.562 2.25-1.537 5.21-2.925 8.89-1.389 3.67-2.792 7.35-4.21 11.03h7.489v8.13h-15.068v-6.75c2.127-6.02 3.575-10.16 4.343-12.41.916-2.62 1.965-5.77 3.147-9.45.768-2.52 1.255-4.31 1.462-5.37.207-1.1.31-2.23.31-3.38 0-2.43-.517-3.65-1.551-3.65-.59 0-.989.46-1.196 1.38s-.31 2.2-.31 3.86v4.41h-6.205v-1.59-2.69c.03-.87.089-1.76.178-2.68.295-3.27 1.078-5.75 2.348-7.45 1.271-1.7 2.94-2.549 5.008-2.549 1.064 0 2.009.184 2.836.549.828.32 1.596.88 2.305 1.66 2.038 2.39 3.058 5.76 3.058 10.13m-16.609-1.1-4.92 37.08h-7.09l5.406-38.88h-7.977v-8.54h14.58v10.34m-15.678-6.14c0 3.13-.428 5.63-1.285 7.52-.827 1.83-2.112 3.03-3.855 3.58v-3.38c.443-.37.753-.73.93-1.1.178-.37.296-.9.355-1.59h-1.285v-9.23h5.14zm-6.194 23.51c0 4.32-.044 7.37-.133 9.16-.089 1.75-.31 3.22-.665 4.42-.65 2.2-1.684 3.81-3.102 4.82-1.389.97-3.132 1.45-5.229 1.45-2.098 0-3.856-.48-5.274-1.45-1.389-1.01-2.423-2.62-3.102-4.82-.325-1.06-.547-2.6-.665-4.62-.089-2.07-.133-5.06-.133-8.96v-8.07c0-4.32.044-7.35.133-9.1.088-1.79.31-3.28.665-4.48.679-2.16 1.698-3.7 3.057-4.62 1.359-.91 3.132-1.37 5.318-1.37 2.187 0 3.945.46 5.274 1.37 1.359.88 2.378 2.42 3.058 4.62.325 1.1.532 2.69.62 4.76.119 2.02.178 4.96.178 8.82zm-7.933 7.99v-23.5-1.1c0-1.48-.074-2.53-.222-3.18-.118-.64-.443-.96-.975-.96-.531 0-.871.37-1.019 1.1-.147.69-.221 2.07-.221 4.14v24.33c0 1.24.073 2.2.221 2.89s.473 1.04.975 1.04c.827 0 1.241-1.59 1.241-4.76m-12.274 11.72h-7.356v-17.16c-.001-1.7-.148-2.83-.444-3.38-.295-.55-.945-.83-1.95-.83v21.37h-7.932v-47.42h5.628c4.668 0 7.637.48 8.908 1.44 2.097 1.61 3.146 5.43 3.146 11.45 0 3.58-.236 5.97-.709 7.16-.561 1.43-1.773 2.3-3.634 2.62 1.891.79 3.117 1.96 3.678 3.52.443 1.24.665 3.58.665 7.03zm-7.357-33.02v-2.62c0-1.24-.103-2.11-.31-2.62-.295-.69-.871-1.03-1.728-1.03h-.355v10.48c1.034 0 1.684-.26 1.95-.76.296-.55.443-1.7.443-3.45m-12.584 13.3c0 4.33-.044 7.38-.132 9.17-.089 1.75-.311 3.22-.665 4.42-.65 2.2-1.684 3.81-3.102 4.82-1.389.97-3.132 1.45-5.23 1.45-2.097 0-3.855-.48-5.274-1.45-1.388-1.01-2.422-2.62-3.102-4.82-.325-1.06-.546-2.6-.664-4.62-.089-2.07-.133-5.06-.133-8.97v-8.06c0-4.32.044-7.35.133-9.1.088-1.79.31-3.28.664-4.48.68-2.16 1.699-3.7 3.058-4.62s3.132-1.38 5.318-1.38 3.944.46 5.274 1.38c1.359.88 2.378 2.42 3.058 4.62.325 1.1.532 2.69.62 4.76.118 2.02.177 4.96.177 8.82zm-7.932 8v-23.5c0-.51 0-.88 0-1.11 0-1.47-.074-2.52-.222-3.17-.118-.64-.443-.96-.975-.96s-.871.36-1.019 1.1c-.148.69-.222 2.07-.222 4.14v24.33c0 1.24.074 2.2.222 2.89.147.69.473 1.04.975 1.04.827 0 1.241-1.59 1.241-4.76m-12.052-18.33c0 3.81-.384 6.48-1.153 7.99-1.004 2.02-2.954 3.04-5.849 3.04h-2.128v19.02h-7.932v-47.42h7.977c1.92 0 3.383.16 4.387.48 1.005.27 1.891.92 2.659 1.93s1.3 2.16 1.596 3.45c.295 1.24.443 3.69.443 7.37zm-6.648-1.52v-3.79c0-1.66-.162-2.71-.487-3.17-.296-.51-.96-.76-1.994-.76v12.06h.576c.768 0 1.27-.3 1.507-.89.265-.65.398-1.8.398-3.45m-12.008 1.52c0 3.81-.384 6.48-1.152 7.99-1.004 2.02-2.954 3.04-5.85 3.04h-2.127v19.02h-7.933v-47.42h7.977c1.921 0 3.383.16 4.388.48 1.004.28 1.891.92 2.659 1.93s1.3 2.16 1.595 3.45c.296 1.24.443 3.69.443 7.37zm-6.647-1.52v-3.79c0-1.65-.163-2.71-.488-3.17-.295-.51-.96-.76-1.994-.76v12.06h.576c.768 0 1.271-.3 1.507-.89.266-.65.399-1.79.399-3.45m-11.166 31.57h-8.11l-.399-8.55h-2.88l-.444 8.55h-8.198l4.033-47.42h11.478zm-8.731-17.03c-.266-3.49-.531-7.37-.797-11.64-.266-4.32-.399-7.06-.399-8.21-.207 2.21-.502 5.86-.886 10.96-.266 3.31-.488 6.28-.665 8.9h2.747m-11.52 5.3c0 2.71-.133 4.67-.398 5.86-.237 1.15-.65 2.23-1.241 3.24s-1.418 1.75-2.482 2.21c-1.064.41-2.334.62-3.811.62-1.596 0-2.91-.23-3.944-.69s-1.862-1.24-2.482-2.35c-.591-1.1-1.034-2.39-1.33-3.86-.265-1.51-.398-3.9-.398-7.16v-1.8h6.647v4.41c0 1.61.059 2.72.177 3.31.148.6.503.9 1.064.9.945 0 1.418-1.29 1.418-3.86 0-1.65-.059-2.9-.177-3.72-.118-.83-.473-1.7-1.064-2.62-2.748-3.08-4.638-5.38-5.672-6.9-1.744-2.52-2.615-6.25-2.615-11.16 0-1.75.059-3.26.177-4.55.148-1.29.429-2.51.842-3.66.591-1.51 1.418-2.54 2.482-3.1 1.064-.55 2.482-.82 4.254-.82 1.714 0 3.058.16 4.033.48 1.005.32 1.832 1.03 2.482 2.14.65 1.1 1.078 2.5 1.285 4.2.118 1.01.177 2.87.177 5.58v.62h-6.603v-2.13c0-1.24-.015-2-.044-2.28-.118-1.05-.488-1.58-1.108-1.58-.857 0-1.285 1.24-1.285 3.72 0 1.93.192 3.31.576 4.14.413.82 1.654 2.27 3.722 4.34 2.275 2.25 3.767 4.64 4.476 7.17.562 1.97.843 5.07.843 9.3" fill="#a9a8ac" fill-rule="nonzero"/><path d="m171.94 825.43c6.529-11.308 2.666-25.774-8.642-32.303-6.846-3.953-18.214-2.585-21.563-1.078s-16.597.916-16.597-12.436c.414-8.973 9.059-14.147 16.606-12.432 7.546 1.715 14.693 2.888 21.539-1.065 11.308-6.529 15.19-20.99 8.661-32.299-6.529-11.308-20.99-15.19-32.299-8.662-6.848 3.954-11.342 14.479-11.71 18.133-.368 3.655-7.498 14.837-19.061 8.162-11.563-6.676-5.459-18.451-2.478-20.597s9.849-11.3 9.849-19.208c0-13.058-10.593-23.641-23.65-23.641-13.058 0-23.641 10.593-23.641 23.65 0 7.906 6.866 17.04 9.847 19.186 2.98 2.146 9.099 13.922-2.464 20.597-11.563 6.676-19.068-8.156-19.068-8.156s.355 3.643-.016-.009c-.37-3.652-4.84-14.167-11.684-18.117-11.308-6.529-25.783-2.65-32.311 8.658s-2.641 25.767 8.667 32.296c6.851 3.955 14.848 4.089 21.548 1.069 0 0 16.597-.916 16.597 12.436s-16.606 12.432-16.606 12.432l-.009.015c-6.697-3.015-14.693-2.887-21.539 1.066-11.308 6.529-15.19 20.99-8.661 32.299 6.529 11.308 20.999 15.175 32.308 8.646 6.848-3.954 10.964-10.808 11.701-18.118 0 0 7.514-14.829 19.077-8.153s2.463 20.588 2.463 20.588c-5.962 4.292-9.84 11.285-9.84 19.192 0 13.058 10.584 23.656 23.641 23.656 13.058 0 23.641-10.593 23.641-23.65 0-7.906-3.887-14.894-9.847-19.186-16.744-16.062 18.171-33.632 21.541-12.457.367 3.656 4.864 14.18 11.715 18.135 11.308 6.529 25.758 2.657 32.287-8.651z" fill="#fff" fill-rule="nonzero"/></g></svg>

<?xml version="1.0" encoding="UTF-8" standalone="no"?>
<!DOCTYPE svg PUBLIC "-//W3C//DTD SVG 1.1//EN" "http://www.w3.org/Graphics/SVG/1.1/DTD/svg11.dtd">
<svg width="100%" height="100%" viewBox="0 0 560 400" version="1.1" xmlns="http://www.w3.org/2000/svg" xmlns:xlink="http://www.w3.org/1999/xlink" xml:space="preserve" xmlns:serif="http://www.serif.com/" style="fill-rule:evenodd;clip-rule:evenodd;">
    <g transform="matrix(0.547825,0,0,0.547825,229.271,-227.093)">
        <g transform="matrix(-3.82857e-16,1,-1,-3.82857e-16,0,0)">
            <rect x="505.81" y="-183.87" width="547.61" height="182.54" style="fill:rgb(169,168,172);"/>
        </g>
        <rect x="3.067" y="872.63" width="179.06" height="179.06" style="fill:white;"/>
        <rect x="3.067" y="507.55" width="179.06" height="179.06" style="fill:white;"/>
        <circle cx="92.597" cy="597.08" r="88.193" style="fill:rgb(246,56,56);"/>
    </g>
    <g transform="matrix(0.547825,0,0,0.547825,229.271,-227.093)">
        <circle cx="33.619" cy="902.57" r="24.826" style="fill:none;stroke:rgb(35,65,194);stroke-width:6.3px;"/>
    </g>
    <g transform="matrix(0.547825,0,0,0.547825,229.271,-227.093)">
        <circle cx="92.597" cy="902.57" r="24.826" style="fill:none;stroke:black;stroke-width:6.3px;"/>
    </g>
    <g transform="matrix(0.0714747,-0.266742,0.266742,0.0714747,245.457,291.67)">
        <clipPath id="_clip1">
            <path d="M71.861,41.894L130.117,36.352L119.745,75.284L83.939,72.442L71.861,41.894Z"/>
        </clipPath>
        <g clip-path="url(#_clip1)">
            <path d="M93.4,24.45C106.495,41.91 106.495,66.09 93.4,83.55" style="fill:none;stroke:white;stroke-width:15.91px;"/>
        </g>
    </g>
    <g transform="matrix(0.547825,0,0,0.547825,229.271,-227.093)">
        <circle cx="151.58" cy="902.57" r="24.826" style="fill:none;stroke:rgb(246,56,56);stroke-width:6.3px;"/>
    </g>
    <g transform="matrix(-0.276148,0,0,-0.276148,278.757,295.883)">
        <clipPath id="_clip2">
            <path d="M71.861,41.894L130.117,36.352L119.745,75.284L83.939,72.442L71.861,41.894Z"/>
        </clipPath>
        <g clip-path="url(#_clip2)">
            <path d="M93.4,24.45C106.495,41.91 106.495,66.09 93.4,83.55" style="fill:none;stroke:white;stroke-width:15.91px;"/>
        </g>
    </g>
    <g transform="matrix(0.547825,0,0,0.547825,229.271,-227.093)">
        <circle cx="63.108" cy="927.77" r="24.826" style="fill:none;stroke:rgb(252,238,1);stroke-width:6.3px;"/>
    </g>
    <g transform="matrix(-0.276148,0,0,-0.276148,311.067,296.376)">
        <clipPath id="_clip3">
            <path d="M71.861,41.894L130.117,36.352L119.745,75.284L83.939,72.442L71.861,41.894Z"/>
        </clipPath>
        <g clip-path="url(#_clip3)">
            <path d="M93.4,24.45C106.495,41.91 106.495,66.09 93.4,83.55" style="fill:none;stroke:white;stroke-width:15.91px;"/>
        </g>
    </g>
    <g transform="matrix(0.0714747,-0.266742,0.266742,0.0714747,277.767,291.67)">
        <clipPath id="_clip4">
            <path d="M71.861,41.894L130.117,36.352L119.745,75.284L83.939,72.442L71.861,41.894Z"/>
        </clipPath>
        <g clip-path="url(#_clip4)">
            <path d="M93.4,24.45C106.495,41.91 106.495,66.09 93.4,83.55" style="fill:none;stroke:white;stroke-width:15.91px;"/>
        </g>
    </g>
    <g transform="matrix(0.547825,0,0,0.547825,229.271,-227.093)">
        <circle cx="122.09" cy="927.77" r="24.826" style="fill:none;stroke:rgb(48,133,50);stroke-width:6.3px;"/>
    </g>
    <g transform="matrix(0.276148,0,0,0.276148,232.777,252.446)">
        <clipPath id="_clip5">
            <path d="M71.861,41.894L130.117,36.352L119.745,75.284L83.939,72.442L71.861,41.894Z"/>
        </clipPath>
        <g clip-path="url(#_clip5)">
            <path d="M93.4,24.45C106.495,41.91 106.495,66.09 93.4,83.55" style="fill:none;stroke:white;stroke-width:15.91px;"/>
        </g>
    </g>
    <g transform="matrix(0.547825,0,0,0.547825,229.271,-227.093)">
        <path d="M53.48,887.67C60.081,896.471 60.081,908.66 53.48,917.461" style="fill:none;stroke:rgb(35,65,194);stroke-width:6.3px;"/>
    </g>
    <g transform="matrix(-0.138074,0.239153,-0.239153,-0.138074,300.144,261.923)">
        <clipPath id="_clip6">
            <path d="M130.057,47.243L83.972,52.116L80.128,40L131.581,12.933L130.057,47.243Z"/>
        </clipPath>
        <g clip-path="url(#_clip6)">
            <path d="M93.4,24.45C106.495,41.91 106.495,66.09 93.4,83.55" style="fill:none;stroke:white;stroke-width:15.91px;"/>
        </g>
    </g>
    <g transform="matrix(0.276148,0,0,0.276148,265.087,252.446)">
        <clipPath id="_clip7">
            <path d="M71.861,41.894L130.117,36.352L119.745,75.284L83.939,72.442L71.861,41.894Z"/>
        </clipPath>
        <g clip-path="url(#_clip7)">
            <path d="M93.4,24.45C106.495,41.91 106.495,66.09 93.4,83.55" style="fill:none;stroke:white;stroke-width:15.91px;"/>
        </g>
    </g>
    <g transform="matrix(0.547825,0,0,0.547825,229.271,-227.093)">
        <path d="M112.46,887.67C119.061,896.471 119.061,908.66 112.46,917.461M92.599,927.392C87.228,927.392 82,925.649 77.703,922.426" style="fill:none;stroke:black;stroke-width:6.3px;"/>
    </g>
    <g transform="matrix(0.276148,0,0,0.276148,232.777,252.446)">
        <clipPath id="_clip8">
            <path d="M251.653,117.757L275.762,66.173L285.728,90.686L287.344,114.93L251.653,117.757Z"/>
        </clipPath>
        <g clip-path="url(#_clip8)">
            <path d="M288,103.25C277.346,103.25 266.974,99.793 258.45,93.4" style="fill:none;stroke:white;stroke-width:15.91px;"/>
        </g>
    </g>
    <g transform="matrix(0.547825,0,0,0.547825,229.271,-227.093)">
        <path d="M151.58,927.39C146.209,927.39 140.981,925.647 136.684,922.425" style="fill:none;stroke:rgb(246,56,56);stroke-width:6.3px;"/>
    </g>
    <g transform="matrix(0.547825,0,0,0.547825,229.271,-227.093)">
        <path d="M178.42,1011.9C178.42,1014.43 178.08,1017.07 177.401,1019.83C176.839,1022.08 175.864,1025.04 174.476,1028.72C173.087,1032.39 171.684,1036.07 170.266,1039.75L177.755,1039.75L177.755,1047.88L162.687,1047.88L162.687,1041.13C164.814,1035.11 166.262,1030.97 167.03,1028.72C167.946,1026.1 168.995,1022.95 170.177,1019.27C170.945,1016.75 171.432,1014.96 171.639,1013.9C171.846,1012.8 171.949,1011.67 171.949,1010.52C171.949,1008.09 171.432,1006.87 170.398,1006.87C169.808,1006.87 169.409,1007.33 169.202,1008.25C168.995,1009.17 168.892,1010.45 168.892,1012.11L168.892,1016.52L162.687,1016.52L162.687,1014.93L162.687,1012.24C162.717,1011.37 162.776,1010.48 162.865,1009.56C163.16,1006.29 163.943,1003.81 165.213,1002.11C166.484,1000.41 168.153,999.561 170.221,999.561C171.285,999.561 172.23,999.745 173.057,1000.11C173.885,1000.43 174.653,1000.99 175.362,1001.77C177.4,1004.16 178.42,1007.53 178.42,1011.9M161.811,1010.8L156.891,1047.88L149.801,1047.88L155.207,1009L147.23,1009L147.23,1000.46L161.81,1000.46L161.81,1010.8M146.132,1004.66C146.132,1007.79 145.704,1010.29 144.847,1012.18C144.02,1014.01 142.735,1015.21 140.992,1015.76L140.992,1012.38C141.435,1012.01 141.745,1011.65 141.922,1011.28C142.1,1010.91 142.218,1010.38 142.277,1009.69L140.992,1009.69L140.992,1000.46L146.132,1000.46L146.132,1004.66M139.938,1028.17C139.938,1032.49 139.894,1035.54 139.805,1037.33C139.716,1039.08 139.495,1040.55 139.14,1041.75C138.49,1043.95 137.456,1045.56 136.038,1046.57C134.649,1047.54 132.906,1048.02 130.809,1048.02C128.711,1048.02 126.953,1047.54 125.535,1046.57C124.146,1045.56 123.112,1043.95 122.433,1041.75C122.108,1040.69 121.886,1039.15 121.768,1037.13C121.679,1035.06 121.635,1032.07 121.635,1028.17L121.635,1020.1C121.635,1015.78 121.679,1012.75 121.768,1011C121.856,1009.21 122.078,1007.72 122.433,1006.52C123.112,1004.36 124.131,1002.82 125.49,1001.9C126.849,1000.99 128.622,1000.53 130.808,1000.53C132.995,1000.53 134.753,1000.99 136.082,1001.9C137.441,1002.78 138.46,1004.32 139.14,1006.52C139.465,1007.62 139.672,1009.21 139.76,1011.28C139.879,1013.3 139.938,1016.24 139.938,1020.1L139.938,1028.17M132.005,1036.16L132.005,1012.66L132.005,1011.56C132.005,1010.08 131.931,1009.03 131.783,1008.38C131.665,1007.74 131.34,1007.42 130.808,1007.42C130.277,1007.42 129.937,1007.79 129.789,1008.52C129.642,1009.21 129.568,1010.59 129.568,1012.66L129.568,1036.99C129.568,1038.23 129.641,1039.19 129.789,1039.88C129.937,1040.57 130.262,1040.92 130.764,1040.92C131.591,1040.92 132.005,1039.33 132.005,1036.16M119.731,1047.88L112.375,1047.88L112.375,1030.72C112.374,1029.02 112.227,1027.89 111.931,1027.34C111.636,1026.79 110.986,1026.51 109.981,1026.51L109.981,1047.88L102.049,1047.88L102.049,1000.46L107.677,1000.46C112.345,1000.46 115.314,1000.94 116.585,1001.9C118.682,1003.51 119.731,1007.33 119.731,1013.35C119.731,1016.93 119.495,1019.32 119.022,1020.51C118.461,1021.94 117.249,1022.81 115.388,1023.13C117.279,1023.92 118.505,1025.09 119.066,1026.65C119.509,1027.89 119.731,1030.23 119.731,1033.68L119.731,1047.88M112.374,1014.86L112.374,1012.24C112.374,1011 112.271,1010.13 112.064,1009.62C111.769,1008.93 111.193,1008.59 110.336,1008.59L109.981,1008.59L109.981,1019.07C111.015,1019.07 111.665,1018.81 111.931,1018.31C112.227,1017.76 112.374,1016.61 112.374,1014.86M99.79,1028.16C99.79,1032.49 99.746,1035.54 99.658,1037.33C99.569,1039.08 99.347,1040.55 98.993,1041.75C98.343,1043.95 97.309,1045.56 95.891,1046.57C94.502,1047.54 92.759,1048.02 90.661,1048.02C88.564,1048.02 86.806,1047.54 85.387,1046.57C83.999,1045.56 82.965,1043.95 82.285,1041.75C81.96,1040.69 81.739,1039.15 81.621,1037.13C81.532,1035.06 81.488,1032.07 81.488,1028.16L81.488,1020.1C81.488,1015.78 81.532,1012.75 81.621,1011C81.709,1009.21 81.931,1007.72 82.285,1006.52C82.965,1004.36 83.984,1002.82 85.343,1001.9C86.702,1000.98 88.475,1000.52 90.661,1000.52C92.847,1000.52 94.605,1000.98 95.935,1001.9C97.294,1002.78 98.313,1004.32 98.993,1006.52C99.318,1007.62 99.525,1009.21 99.613,1011.28C99.731,1013.3 99.79,1016.24 99.79,1020.1L99.79,1028.16M91.858,1036.16L91.858,1012.66C91.858,1012.15 91.858,1011.78 91.858,1011.55C91.858,1010.08 91.784,1009.03 91.636,1008.38C91.518,1007.74 91.193,1007.42 90.661,1007.42C90.129,1007.42 89.79,1007.78 89.642,1008.52C89.494,1009.21 89.42,1010.59 89.42,1012.66L89.42,1036.99C89.42,1038.23 89.494,1039.19 89.642,1039.88C89.789,1040.57 90.115,1040.92 90.617,1040.92C91.444,1040.92 91.858,1039.33 91.858,1036.16M79.806,1017.83C79.806,1021.64 79.422,1024.31 78.653,1025.82C77.649,1027.84 75.699,1028.86 72.804,1028.86L70.676,1028.86L70.676,1047.88L62.744,1047.88L62.744,1000.46L70.721,1000.46C72.641,1000.46 74.104,1000.62 75.108,1000.94C76.113,1001.21 76.999,1001.86 77.767,1002.87C78.535,1003.88 79.067,1005.03 79.363,1006.32C79.658,1007.56 79.806,1010.01 79.806,1013.69L79.806,1017.83M73.158,1016.31L73.158,1012.52C73.158,1010.86 72.996,1009.81 72.671,1009.35C72.375,1008.84 71.711,1008.59 70.677,1008.59L70.677,1020.65L71.253,1020.65C72.021,1020.65 72.523,1020.35 72.76,1019.76C73.025,1019.11 73.158,1017.96 73.158,1016.31M61.15,1017.83C61.15,1021.64 60.766,1024.31 59.998,1025.82C58.994,1027.84 57.044,1028.86 54.148,1028.86L52.021,1028.86L52.021,1047.88L44.088,1047.88L44.088,1000.46L52.065,1000.46C53.986,1000.46 55.448,1000.62 56.453,1000.94C57.457,1001.22 58.344,1001.86 59.112,1002.87C59.88,1003.88 60.412,1005.03 60.707,1006.32C61.003,1007.56 61.15,1010.01 61.15,1013.69L61.15,1017.83M54.503,1016.31L54.503,1012.52C54.503,1010.87 54.34,1009.81 54.015,1009.35C53.72,1008.84 53.055,1008.59 52.021,1008.59L52.021,1020.65L52.597,1020.65C53.365,1020.65 53.868,1020.35 54.104,1019.76C54.37,1019.11 54.503,1017.97 54.503,1016.31M43.337,1047.88L35.227,1047.88L34.828,1039.33L31.948,1039.33L31.504,1047.88L23.306,1047.88L27.339,1000.46L38.817,1000.46L43.337,1047.88M34.606,1030.85C34.34,1027.36 34.075,1023.48 33.809,1019.21C33.543,1014.89 33.41,1012.15 33.41,1011C33.203,1013.21 32.908,1016.86 32.524,1021.96C32.258,1025.27 32.036,1028.24 31.859,1030.86L34.606,1030.86M23.086,1036.16C23.086,1038.87 22.953,1040.83 22.688,1042.02C22.451,1043.17 22.038,1044.25 21.447,1045.26C20.856,1046.27 20.029,1047.01 18.965,1047.47C17.901,1047.88 16.631,1048.09 15.154,1048.09C13.558,1048.09 12.244,1047.86 11.21,1047.4C10.176,1046.94 9.348,1046.16 8.728,1045.05C8.137,1043.95 7.694,1042.66 7.398,1041.19C7.133,1039.68 7,1037.29 7,1034.03L7,1032.23L13.647,1032.23L13.647,1036.64C13.647,1038.25 13.706,1039.36 13.824,1039.95C13.972,1040.55 14.327,1040.85 14.888,1040.85C15.833,1040.85 16.306,1039.56 16.306,1036.99C16.306,1035.34 16.247,1034.09 16.129,1033.27C16.011,1032.44 15.656,1031.57 15.065,1030.65C12.317,1027.57 10.427,1025.27 9.393,1023.75C7.649,1021.23 6.778,1017.5 6.778,1012.59C6.778,1010.84 6.837,1009.33 6.955,1008.04C7.103,1006.75 7.384,1005.53 7.797,1004.38C8.388,1002.87 9.215,1001.84 10.279,1001.28C11.343,1000.73 12.761,1000.46 14.533,1000.46C16.247,1000.46 17.591,1000.62 18.566,1000.94C19.571,1001.26 20.398,1001.97 21.048,1003.08C21.698,1004.18 22.126,1005.58 22.333,1007.28C22.451,1008.29 22.51,1010.15 22.51,1012.86L22.51,1013.48L15.907,1013.48L15.907,1011.35C15.907,1010.11 15.892,1009.35 15.863,1009.07C15.745,1008.02 15.375,1007.49 14.755,1007.49C13.898,1007.49 13.47,1008.73 13.47,1011.21C13.47,1013.14 13.662,1014.52 14.046,1015.35C14.459,1016.17 15.7,1017.62 17.768,1019.69C20.043,1021.94 21.535,1024.33 22.244,1026.86C22.806,1028.83 23.087,1031.93 23.087,1036.16" style="fill:rgb(169,168,172);fill-rule:nonzero;"/>
    </g>
    <g transform="matrix(0.547825,0,0,0.547825,229.271,-227.093)">
        <path d="M171.94,825.43C178.469,814.122 174.606,799.656 163.298,793.127C156.452,789.174 145.084,790.542 141.735,792.049C138.386,793.556 125.138,792.965 125.138,779.613C125.552,770.64 134.197,765.466 141.744,767.181C149.29,768.896 156.437,770.069 163.283,766.116C174.591,759.587 178.473,745.126 171.944,733.817C165.415,722.509 150.954,718.627 139.645,725.155C132.797,729.109 128.303,739.634 127.935,743.288C127.567,746.943 120.437,758.125 108.874,751.45C97.311,744.774 103.415,732.999 106.396,730.853C109.377,728.707 116.245,719.553 116.245,711.645C116.245,698.587 105.652,688.004 92.595,688.004C79.537,688.004 68.954,698.597 68.954,711.654C68.954,719.56 75.82,728.694 78.801,730.84C81.781,732.986 87.9,744.762 76.337,751.437C64.774,758.113 57.269,743.281 57.269,743.281C57.269,743.281 57.624,746.924 57.253,743.272C56.883,739.62 52.413,729.105 45.569,725.155C34.261,718.626 19.786,722.505 13.258,733.813C6.73,745.121 10.617,759.58 21.925,766.109C28.776,770.064 36.773,770.198 43.473,767.178C43.473,767.178 60.07,766.262 60.07,779.614C60.07,792.966 43.464,792.046 43.464,792.046L43.455,792.061C36.758,789.046 28.762,789.174 21.916,793.127C10.608,799.656 6.726,814.117 13.255,825.426C19.784,836.734 34.254,840.601 45.563,834.072C52.411,830.118 56.527,823.264 57.264,815.954C57.264,815.954 64.778,801.125 76.341,807.801C87.904,814.477 78.804,828.389 78.804,828.389C72.842,832.681 68.964,839.674 68.964,847.581C68.964,860.639 79.548,871.237 92.605,871.237C105.663,871.237 116.246,860.644 116.246,847.587C116.246,839.681 112.359,832.693 106.399,828.401C89.655,812.339 124.57,794.769 127.94,815.944C128.307,819.6 132.804,830.124 139.655,834.079C150.963,840.608 165.413,836.736 171.942,825.428L171.94,825.43Z" style="fill:white;fill-rule:nonzero;"/>
    </g>
</svg>
